X: 1
T: Union Street Session
C: Paul S. Cranford
O: Cape Breton Island
Z: 2014 John Chambers <jc:trillian.mit.edu>
D: The Lighthouse,1996; Fiddler's Choice, Jerry Holland, The Bumblebees
B: The Lighthouse Collection, Paul Stewart Cranford
N: "Union Street Session was written a couple of days after a late night bash at fiddler Kyle MacNeil's home in Sydney."
M: 4/4
L: 1/8
R: reel
K: D
%%slurgraces
   c |\
"D"{c}d2AG TF2DF | "A7"EA,-~A,2 GFED | "D"{DE}F2AF "G"GABd | "A7"AE-~E2 cdec |
"D"{c}d2AG TF2DF | "A7"EA,-~A,2 GFED | "D"{DE}F2AF "G"GABd | "A7"AE-~E2 "D"FDD :|
|: c |\
"D"{c}d2fd "(G)"gdfa | "A7"eA A/A/A cdec | "D"{c}d2fd "G"Tg2fg | "A7"aeeg Tf2 ec |
"D"{c}d2fd "(G)"gdfa | "A7"eA A/A/A cdeg | "D"Tf2ed "A7"{d}e2cd | "A7"{d}e2dc "D"{c}d2"_D.C."A :|
